yeet.svg

<svg height="112pt" viewBox="0 0 112 112" width="112pt" xmlns="http://www.w3.org/2000/svg"><g fill="#ff9000"><path d="m98.02 3.06c2.97-.01 5.94-.05 8.91-.03-.88 4.48-1.3 9.04-2.12 13.54 2.09-.15 4.19-.27 6.3-.3-.38 2.63-.86 5.24-1.29 7.85-1.98.21-3.96.33-5.94.41-1.18 8.22-2.77 16.43-2.99 24.74 1.83.06 3.65 0 5.47-.12-.34 2.55-.57 5.12-.94 7.67-3.74.67-7.96 1.7-11.37-.59-2.65-2.44-2.08-6.34-1.82-9.55 1.08-7.22 1.62-14.52 2.9-21.71-1.42 0-2.83 0-4.24-.01.28-2.65.67-5.29 1.23-7.89h3.82c.82-4.65 1.21-9.37 2.08-14.01z"/><path d="m66.96 23.89c4.29-4.03 11.97-5.59 16.74-1.61 4.17 4.83 2.63 11.83 2.24 17.64-5.18 1.02-10.52.66-15.71 1.48-.94 3.82-1.25 7.93.1 11.69 1.33.01 2.67.02 4.01.01 1.62-2.2 2.19-4.88 2.76-7.5 2.71-.23 5.42-.43 8.13-.59-.21 6.09-2.78 13.17-9 15.38-4.14 1.41-9.63 1.88-12.76-1.77-3.23-4.62-2.38-10.6-2.32-15.91.71-6.5 1.13-13.77 5.81-18.82m5.15 5.06c-.56 1.42-1.07 2.85-1.56 4.29 2.53-.11 5.06-.21 7.59-.28.01-1.35 0-2.71-.02-4.06-1.94-1.08-4.04-.69-6.01.05z"/><path d="m37.05 26.88c3.55-3.64 9.03-4.57 13.88-3.63 2.74.95 4.76 3.56 5.31 6.37 1 4.23.56 8.63.37 12.93-5.32.45-10.57 1.46-15.92 1.54-.45 3.83-1.85 8.34.78 11.69 4.54 2.04 6.16-3.9 5.98-7.28 2.89-.42 5.8-.59 8.7-.9-.57 5.66-2.19 12.23-7.67 15.08-4.2 1.93-9.93 2.83-13.65-.55-3.53-4.22-2.8-10.04-2.84-15.15-.08-6.91.38-14.57 5.06-20.1m5.01 5.18c-.47 1.41-.92 2.82-1.35 4.24 2.7-.19 5.4-.42 8.06-.98-.58-1.42-.47-3.33-1.82-4.32-1.73-.39-3.32.49-4.89 1.06z"/><path d="m21.34 26.13c2.92-.64 5.89-1.05 8.88-1.25-3.95 14.19-8.11 28.34-11.65 42.64-.64 2.45-1.46 4.98-3.29 6.82-2.9 3.11-7.31 3.83-11.25 4.79.02-2.65.04-5.29.01-7.93 3.05-.84 7.47-2.04 7.02-6.09-2.45-12.19-5.29-24.33-8.05-36.47 2.92-.47 5.86-.84 8.77-1.38 1.15 8.47 3.03 16.87 3.43 25.43 2.35-8.77 4.11-17.7 6.13-26.56z"/><path d="m16.43 80.36c25.33-8.74 51.95-13.63 78.68-15.14 2.99-.68 5.01 1.75 6.86 3.64 0 1.37.01 2.74 0 4.12-1.54 1.4-2.95 3.26-5.15 3.59-27.15 1.64-54.24 6.62-79.91 15.74-2.86 1.03-4.91-1.82-6.85-3.4-.03-1.38-.05-2.76-.06-4.13 1.78-1.94 3.81-3.73 6.43-4.42z"/><path d="m78.46 87.32c3.2-.44 6.42-.88 9.65-1.05 4.01-.57 7.35 4.18 5.74 7.82-.89 2.32-3.29 3.73-5.72 3.75-14.85 1.38-29.58 4.21-43.81 8.71-2.59.84-5.3 1.98-8.07 1.3-2.67-1.39-4.55-5.02-2.79-7.8 1.33-2.78 4.6-3.43 7.25-4.34 12.29-3.95 24.93-6.8 37.75-8.39z"/></g></svg>

<?xml version="1.0" encoding="UTF-8" ?>
<!DOCTYPE svg PUBLIC "-//W3C//DTD SVG 1.1//EN" "http://www.w3.org/Graphics/SVG/1.1/DTD/svg11.dtd">
<svg width="112pt" height="112pt" viewBox="0 0 112 112" version="1.1" xmlns="http://www.w3.org/2000/svg">
<g id="#ff9000ff">
<path fill="#ff9000" opacity="1.00" d=" M 98.02 3.06 C 100.99 3.05 103.96 3.01 106.93 3.03 C 106.05 7.51 105.63 12.07 104.81 16.57 C 106.90 16.42 109.00 16.30 111.11 16.27 C 110.73 18.90 110.25 21.51 109.82 24.12 C 107.84 24.33 105.86 24.45 103.88 24.53 C 102.70 32.75 101.11 40.96 100.89 49.27 C 102.72 49.33 104.54 49.27 106.36 49.15 C 106.02 51.70 105.79 54.27 105.42 56.82 C 101.68 57.49 97.46 58.52 94.05 56.23 C 91.40 53.79 91.97 49.89 92.23 46.68 C 93.31 39.46 93.85 32.16 95.13 24.97 C 93.71 24.97 92.30 24.97 90.89 24.96 C 91.17 22.31 91.56 19.67 92.12 17.07 C 93.39 17.07 94.67 17.07 95.94 17.07 C 96.76 12.42 97.15 7.70 98.02 3.06 Z" />
<path fill="#ff9000" opacity="1.00" d=" M 66.96 23.89 C 71.25 19.86 78.93 18.30 83.70 22.28 C 87.87 27.11 86.33 34.11 85.94 39.92 C 80.76 40.94 75.42 40.58 70.23 41.40 C 69.29 45.22 68.98 49.33 70.33 53.09 C 71.66 53.10 73.00 53.11 74.34 53.10 C 75.96 50.90 76.53 48.22 77.10 45.60 C 79.81 45.37 82.52 45.17 85.23 45.01 C 85.02 51.10 82.45 58.18 76.23 60.39 C 72.09 61.80 66.60 62.27 63.47 58.62 C 60.24 54.00 61.09 48.02 61.15 42.71 C 61.86 36.21 62.28 28.94 66.96 23.89 M 72.11 28.95 C 71.55 30.37 71.04 31.80 70.55 33.24 C 73.08 33.13 75.61 33.03 78.14 32.96 C 78.15 31.61 78.14 30.25 78.12 28.90 C 76.18 27.82 74.08 28.21 72.11 28.95 Z" />
<path fill="#ff9000" opacity="1.00" d=" M 37.05 26.88 C 40.60 23.24 46.08 22.31 50.93 23.25 C 53.67 24.20 55.69 26.81 56.24 29.62 C 57.24 33.85 56.80 38.25 56.61 42.55 C 51.29 43.00 46.04 44.01 40.69 44.09 C 40.24 47.92 38.84 52.43 41.47 55.78 C 46.01 57.82 47.63 51.88 47.45 48.50 C 50.34 48.08 53.25 47.91 56.15 47.60 C 55.58 53.26 53.96 59.83 48.48 62.68 C 44.28 64.61 38.55 65.51 34.83 62.13 C 31.30 57.91 32.03 52.09 31.99 46.98 C 31.91 40.07 32.37 32.41 37.05 26.88 M 42.06 32.06 C 41.59 33.47 41.14 34.88 40.71 36.30 C 43.41 36.11 46.11 35.88 48.77 35.32 C 48.19 33.90 48.30 31.99 46.95 31.00 C 45.22 30.61 43.63 31.49 42.06 32.06 Z" />
<path fill="#ff9000" opacity="1.00" d=" M 21.34 26.13 C 24.26 25.49 27.23 25.08 30.22 24.88 C 26.27 39.07 22.11 53.22 18.57 67.52 C 17.93 69.97 17.11 72.50 15.28 74.34 C 12.38 77.45 7.97 78.17 4.03 79.13 C 4.05 76.48 4.07 73.84 4.04 71.20 C 7.09 70.36 11.51 69.16 11.06 65.11 C 8.61 52.92 5.77 40.78 3.01 28.64 C 5.93 28.17 8.87 27.80 11.78 27.26 C 12.93 35.73 14.81 44.13 15.21 52.69 C 17.56 43.92 19.32 34.99 21.34 26.13 Z" />
<path fill="#ff9000" opacity="1.00" d=" M 16.43 80.36 C 41.76 71.62 68.38 66.73 95.11 65.22 C 98.10 64.54 100.12 66.97 101.97 68.86 C 101.97 70.23 101.98 71.60 101.97 72.98 C 100.43 74.38 99.02 76.24 96.82 76.57 C 69.67 78.21 42.58 83.19 16.91 92.31 C 14.05 93.34 12.00 90.49 10.06 88.91 C 10.03 87.53 10.01 86.15 10.00 84.78 C 11.78 82.84 13.81 81.05 16.43 80.36 Z" />
<path fill="#ff9000" opacity="1.00" d=" M 78.46 87.32 C 81.66 86.88 84.88 86.44 88.11 86.27 C 92.12 85.70 95.46 90.45 93.85 94.09 C 92.96 96.41 90.56 97.82 88.13 97.84 C 73.28 99.22 58.55 102.05 44.32 106.55 C 41.73 107.39 39.02 108.53 36.25 107.85 C 33.58 106.46 31.70 102.83 33.46 100.05 C 34.79 97.27 38.06 96.62 40.71 95.71 C 53.00 91.76 65.64 88.91 78.46 87.32 Z" />
</g>
</svg>
